toolkits/global/packages/global-context/img/icons/compare.svg

<svg height="24" viewBox="0 0 24 24" width="24" xmlns="http://www.w3.org/2000/svg"><path d="m15 6c3.3137085 0 6 2.6862915 6 6s-2.6862915 6-6 6c-1.0928452 0-2.1174494-.2921742-2.9999606-.8026704-.8818141.5102749-1.9067804.8026704-3.0000394.8026704-3.3137085 0-6-2.6862915-6-6s2.6862915-6 6-6c1.093259 0 2.1182253.29239547 3.000963.80325037.8815876-.51107621 1.9061918-.80325037 2.999037-.80325037zm-6 1c-2.76142375 0-5 2.23857625-5 5 0 2.7614237 2.23857625 5 5 5 .74397391 0 1.4499967-.162488 2.0845161-.4539116-1.27652343-1.1000812-2.0845161-2.7287264-2.0845161-4.5460884s.80799267-3.44600721 2.0843439-4.5463015c-.6343472-.29121054-1.34036999-.4536985-2.0843439-.4536985zm6 0c-.7439739 0-1.4499967.16248796-2.0845161.45391156 1.2765234 1.10008123 2.0845161 2.72872644 2.0845161 4.54608844s-.8079927 3.4460072-2.0843439 4.5463015c.6343472.2912105 1.34037.4536985 2.0843439.4536985 2.7614237 0 5-2.2385763 5-5 0-2.76142375-2.2385763-5-5-5zm-1.4162763 7.0005324h-3.1674474c.1561466.3572676.3528384.6927622.5842588 1.0006671h1.9989298c.2314204-.3079049.4281122-.6433995.5842588-1.0006671zm.4162763-2.0005324h-4c0 .342885.0345146.6777087.1002591 1.0011864h3.7994818c.0657445-.3234777.1002591-.6583014.1002591-1.0011864zm-.4158423-1.9995389h-3.1683154c-.1385996.3173081-.2452195.651783-.315786.9993509h3.7998874c-.0705665-.3475679-.1771864-.6820428-.315786-.9993509zm-1.5829582-1.99992604-.0831611.06199199c-.3455004.27081213-.6544613.58611297-.9182586.93727862h2.0004404c-.2841863-.37830727-.6207872-.71499149-.9990207-.99927061z" fill="#666" fill-rule="evenodd"/></svg>

<?xml version="1.0" encoding="UTF-8"?>
<svg width="24px" height="24px" viewBox="0 0 24 24" version="1.1" xmlns="http://www.w3.org/2000/svg" xmlns:xlink="http://www.w3.org/1999/xlink">
    <!-- Generator: Sketch 63.1 (92452) - https://sketch.com -->
    <title>icon-icon / compare</title>
    <desc>Created with Sketch.</desc>
    <g id="icon-/-compare" stroke="none" stroke-width="1" fill="none" fill-rule="evenodd">
        <path d="M15,6 C18.3137085,6 21,8.6862915 21,12 C21,15.3137085 18.3137085,18 15,18 C13.9071548,18 12.8825506,17.7078258 12.0000394,17.1973296 C11.1182253,17.7076045 10.093259,18 9,18 C5.6862915,18 3,15.3137085 3,12 C3,8.6862915 5.6862915,6 9,6 C10.093259,6 11.1182253,6.29239547 12.000963,6.80325037 C12.8825506,6.29217416 13.9071548,6 15,6 Z M9,7 C6.23857625,7 4,9.23857625 4,12 C4,14.7614237 6.23857625,17 9,17 C9.74397391,17 10.4499967,16.837512 11.0845161,16.5460884 C9.80799267,15.4460072 9,13.817362 9,12 C9,10.182638 9.80799267,8.55399279 11.0843439,7.4536985 C10.4499967,7.16248796 9.74397391,7 9,7 Z M15,7 C14.2560261,7 13.5500033,7.16248796 12.9154839,7.45391156 C14.1920073,8.55399279 15,10.182638 15,12 C15,13.817362 14.1920073,15.4460072 12.9156561,16.5463015 C13.5500033,16.837512 14.2560261,17 15,17 C17.7614237,17 20,14.7614237 20,12 C20,9.23857625 17.7614237,7 15,7 Z M13.5837237,14.0005324 L10.4162763,14.0005324 C10.5724229,14.3578 10.7691147,14.6932946 11.0005351,15.0011995 L12.9994649,15.0011995 C13.2308853,14.6932946 13.4275771,14.3578 13.5837237,14.0005324 Z M14,12 L10,12 C10,12.342885 10.0345146,12.6777087 10.1002591,13.0011864 L13.8997409,13.0011864 C13.9654854,12.6777087 14,12.342885 14,12 Z M13.5841577,10.0004611 L10.4158423,10.0004611 C10.2772427,10.3177692 10.1706228,10.6522441 10.1000563,10.999812 L13.8999437,10.999812 C13.8293772,10.6522441 13.7227573,10.3177692 13.5841577,10.0004611 Z M12.0011995,8.00053506 L11.9180384,8.06252705 C11.572538,8.33333918 11.2635771,8.64864002 10.9997798,8.99980567 L13.0002202,8.99980567 C12.7160339,8.6214984 12.379433,8.28481418 12.0011995,8.00053506 Z" id="compare" fill="#666666"></path>
    </g>
</svg>
